lib/flags/rw-rwanda.svg

<svg xmlns="http://www.w3.org/2000/svg" fill="none" aria-hidden="true" viewBox="0 0 42 30"><g id="Country=RW - Rwanda, Size=sm (36x24)" filter="url(#filter0_dd_91_25317)"><g clip-path="url(#clip0_91_25317)"><g id="flag"><mask id="mask0_91_25317" width="36" height="24" x="3" y="2" maskUnits="userSpaceOnUse" style="mask-type:alpha"><rect id="mask" width="36" height="24" x="3" y="2" fill="white"/></mask><g mask="url(#mask0_91_25317)"><g id="contents"><path id="background" fill="#FECA00" fill-rule="evenodd" d="M3 2V26H39V2H3Z" clip-rule="evenodd"/><mask id="mask1_91_25317" width="36" height="24" x="3" y="2" maskUnits="userSpaceOnUse" style="mask-type:alpha"><path id="background_2" fill="white" fill-rule="evenodd" d="M3 2V26H39V2H3Z" clip-rule="evenodd"/></mask><g mask="url(#mask1_91_25317)"><path id="top" fill="#3CA5D9" fill-rule="evenodd" d="M3 2V16H39V2H3Z" clip-rule="evenodd"/><path id="bottom" fill="#5A962A" fill-rule="evenodd" d="M3 20V26H39V20H3Z" clip-rule="evenodd"/><g id="mark"><path id="sun" fill="#FFDC17" fill-rule="evenodd" d="M30.092 13.8656C30.0547 13.8664 30.0173 13.8668 29.9797 13.8668C29.9476 13.8668 29.9156 13.8665 29.8836 13.8659L29.2036 15.8398L29.0598 13.7838C28.9909 13.7712 28.9226 13.7571 28.8549 13.7418L27.6773 15.5217L28.076 13.495C28.0118 13.4685 27.9485 13.4407 27.886 13.4117L26.2756 14.9027L27.1939 13.014C27.138 12.9749 27.0831 12.9347 27.0294 12.8934L25.074 14.0162L26.4605 12.3675C26.4158 12.3177 26.3724 12.2669 26.3303 12.2152L24.1373 12.9099L25.9152 11.5896C25.8844 11.5314 25.8552 11.4724 25.8275 11.4127L23.516 11.6436L25.5896 10.7205C25.575 10.6572 25.5621 10.5935 25.551 10.5292L23.2437 10.2853L25.5022 9.80787C25.5045 9.74254 25.5087 9.67762 25.5146 9.61313L23.3349 8.9085L25.6556 8.90187C25.6751 8.8386 25.6964 8.77596 25.7194 8.714L23.7847 7.58727L26.045 8.05146C26.0806 7.99413 26.1179 7.93767 26.1566 7.88211L24.569 6.39286L26.6483 7.30361C26.6977 7.25537 26.7485 7.20821 26.8006 7.16217L25.6454 5.38969L27.4309 6.69829C27.4913 6.66151 27.5529 6.62599 27.6154 6.5918L26.9559 4.63182L28.3508 6.2681C28.419 6.24474 28.4879 6.2228 28.5576 6.20233L28.4299 4.16011L29.3592 6.03743C29.4309 6.02871 29.5032 6.02147 29.5759 6.01576L29.9879 4L30.4001 6.01709C30.4724 6.023 30.5443 6.03043 30.6157 6.03933L31.5458 4.16011L31.4178 6.20706C31.4864 6.22746 31.5542 6.24926 31.6212 6.27245L33.0198 4.63182L32.3578 6.59936C32.4187 6.63291 32.4786 6.66772 32.5375 6.70373L34.3303 5.38969L33.1692 7.17135C33.2194 7.21605 33.2684 7.26179 33.3162 7.30855L35.4067 6.39286L33.8093 7.89138C33.8464 7.94491 33.882 7.99927 33.9163 8.05443L36.191 7.58727L34.2429 8.72183C34.2648 8.78122 34.2851 8.84123 34.3038 8.90182L36.6409 8.9085L34.4453 9.61826C34.4509 9.67991 34.4548 9.74197 34.4571 9.80439L36.7321 10.2853L34.4081 10.5309C34.3975 10.5924 34.3852 10.6534 34.3713 10.7139L36.4597 11.6436L34.1326 11.4111C34.1061 11.4684 34.0782 11.525 34.0488 11.5808L35.8384 12.9099L33.6324 12.2111C33.592 12.261 33.5503 12.31 33.5073 12.3581L34.9018 14.0162L32.937 12.888C32.8849 12.9282 32.8318 12.9674 32.7777 13.0054L33.7002 14.9027L32.0843 13.4066C32.0232 13.4352 31.9612 13.4626 31.8985 13.4887L32.2984 15.5217L31.1187 13.7385C31.0518 13.7539 30.9843 13.768 30.9162 13.7807L30.7722 15.8398L30.092 13.8656ZM29.9393 12.4148C31.515 12.4148 32.7923 11.2959 32.7923 9.91568C32.7923 8.53544 31.515 7.41653 29.9393 7.41653C28.3636 7.41653 27.0863 8.53544 27.0863 9.91568C27.0863 11.2959 28.3636 12.4148 29.9393 12.4148ZM31.5803 9.98886C31.5803 10.7782 30.8604 11.4181 29.9724 11.4181C29.0844 11.4181 28.3645 10.7782 28.3645 9.98886C28.3645 9.19952 29.0844 8.55963 29.9724 8.55963C30.8604 8.55963 31.5803 9.19952 31.5803 9.98886Z" clip-rule="evenodd"/></g></g></g></g></g></g></g><defs><filter id="filter0_dd_91_25317" width="42" height="30" x="0" y="0" color-interpolation-filters="sRGB" filterUnits="userSpaceOnUse"><feFlood flood-opacity="0" result="BackgroundImageFix"/><feColorMatrix in="SourceAlpha" result="hardAlpha" values="0 0 0 0 0 0 0 0 0 0 0 0 0 0 0 0 0 0 127 0"/><feOffset dy="1"/><feGaussianBlur stdDeviation="1"/><feColorMatrix values="0 0 0 0 0.0627451 0 0 0 0 0.0941176 0 0 0 0 0.156863 0 0 0 0.06 0"/><feBlend in2="BackgroundImageFix" result="effect1_dropShadow_91_25317"/><feColorMatrix in="SourceAlpha" result="hardAlpha" values="0 0 0 0 0 0 0 0 0 0 0 0 0 0 0 0 0 0 127 0"/><feOffset dy="1"/><feGaussianBlur stdDeviation="1.5"/><feColorMatrix values="0 0 0 0 0.0627451 0 0 0 0 0.0941176 0 0 0 0 0.156863 0 0 0 0.1 0"/><feBlend in2="effect1_dropShadow_91_25317" result="effect2_dropShadow_91_25317"/><feBlend in="SourceGraphic" in2="effect2_dropShadow_91_25317" result="shape"/></filter><clipPath id="clip0_91_25317"><rect width="36" height="24" x="3" y="2" fill="white" rx="2"/></clipPath></defs></svg>

<svg xmlns="http://www.w3.org/2000/svg" fill="none" aria-hidden="true" viewBox="0 0 42 30"><g filter="url(#a)"><g clip-path="url(#b)"><mask id="c" width="36" height="24" x="3" y="2" maskUnits="userSpaceOnUse" style="mask-type:alpha"><path fill="#fff" d="M3 2h36v24H3z"/></mask><g mask="url(#c)"><path fill="#FECA00" fill-rule="evenodd" d="M3 2v24h36V2H3Z" clip-rule="evenodd"/><mask id="d" width="36" height="24" x="3" y="2" maskUnits="userSpaceOnUse" style="mask-type:alpha"><path fill="#fff" fill-rule="evenodd" d="M3 2v24h36V2H3Z" clip-rule="evenodd"/></mask><g fill-rule="evenodd" clip-rule="evenodd" mask="url(#d)"><path fill="#3CA5D9" d="M3 2v14h36V2H3Z"/><path fill="#5A962A" d="M3 20v6h36v-6H3Z"/><path fill="#FFDC17" d="M30.092 13.866a5.235 5.235 0 0 1-.208 0l-.68 1.974-.144-2.056a5.053 5.053 0 0 1-.205-.042l-1.178 1.78.399-2.027a4.827 4.827 0 0 1-.19-.083l-1.61 1.49.918-1.888a4.51 4.51 0 0 1-.165-.12l-1.955 1.122 1.386-1.649c-.044-.05-.088-.1-.13-.152l-2.193.695 1.778-1.32a3.774 3.774 0 0 1-.087-.177l-2.312.23 2.074-.923a3.5 3.5 0 0 1-.039-.19l-2.307-.245 2.258-.477c.003-.065.007-.13.013-.195l-2.18-.704 2.32-.007c.02-.063.041-.126.064-.188l-1.934-1.127 2.26.464a3.85 3.85 0 0 1 .112-.169l-1.588-1.49 2.08.912c.049-.049.1-.096.152-.142L25.645 5.39l1.786 1.308c.06-.036.122-.072.184-.106l-.66-1.96 1.396 1.636c.068-.023.137-.045.207-.066L28.43 4.16l.93 1.877a5.11 5.11 0 0 1 .216-.021L29.988 4l.412 2.017c.072.006.144.013.216.022l.93-1.879-.128 2.047c.068.02.136.042.203.065l1.399-1.64-.662 1.967.18.105L34.33 5.39l-1.16 1.78c.05.045.098.09.146.138l2.09-.916L33.81 7.89c.037.054.073.108.107.163l2.275-.467-1.948 1.135c.022.06.042.12.06.18l2.338.007-2.196.71c.006.06.01.123.012.185l2.275.481-2.324.246c-.01.061-.023.122-.037.183l2.089.93-2.327-.233a3.658 3.658 0 0 1-.084.17l1.79 1.329-2.207-.699c-.04.05-.082.099-.125.147l1.395 1.658-1.965-1.128c-.052.04-.105.08-.16.117l.923 1.898-1.616-1.496a4.69 4.69 0 0 1-.186.082l.4 2.033-1.18-1.784c-.066.016-.134.03-.202.043l-.144 2.059-.68-1.974Zm-.153-1.451c1.576 0 2.853-1.12 2.853-2.5s-1.277-2.498-2.853-2.498c-1.575 0-2.853 1.118-2.853 2.499 0 1.38 1.278 2.499 2.853 2.499Zm1.641-2.426c0 .79-.72 1.43-1.608 1.43-.888 0-1.608-.64-1.608-1.43 0-.79.72-1.43 1.608-1.43.888 0 1.608.64 1.608 1.43Z"/></g></g></g></g><defs><clipPath id="b"><rect width="36" height="24" x="3" y="2" fill="#fff" rx="2"/></clipPath><filter id="a" width="42" height="30" x="0" y="0" color-interpolation-filters="sRGB" filterUnits="userSpaceOnUse"><feFlood flood-opacity="0" result="BackgroundImageFix"/><feColorMatrix in="SourceAlpha" result="hardAlpha" values="0 0 0 0 0 0 0 0 0 0 0 0 0 0 0 0 0 0 127 0"/><feOffset dy="1"/><feGaussianBlur stdDeviation="1"/><feColorMatrix values="0 0 0 0 0.0627451 0 0 0 0 0.0941176 0 0 0 0 0.156863 0 0 0 0.06 0"/><feBlend in2="BackgroundImageFix" result="effect1_dropShadow_91_25317"/><feColorMatrix in="SourceAlpha" result="hardAlpha" values="0 0 0 0 0 0 0 0 0 0 0 0 0 0 0 0 0 0 127 0"/><feOffset dy="1"/><feGaussianBlur stdDeviation="1.5"/><feColorMatrix values="0 0 0 0 0.0627451 0 0 0 0 0.0941176 0 0 0 0 0.156863 0 0 0 0.1 0"/><feBlend in2="effect1_dropShadow_91_25317" result="effect2_dropShadow_91_25317"/><feBlend in="SourceGraphic" in2="effect2_dropShadow_91_25317" result="shape"/></filter></defs></svg>
